icons/src/scalable/default/hicolor/blender.svg

<?xml version="1.0" encoding="UTF-8" standalone="no"?>
<!-- Created with Inkscape (http://www.inkscape.org/) -->

<svg
   xmlns:dc="http://purl.org/dc/elements/1.1/"
   xmlns:cc="http://creativecommons.org/ns#"
   xmlns:rdf="http://www.w3.org/1999/02/22-rdf-syntax-ns#"
   xmlns:svg="http://www.w3.org/2000/svg"
   xmlns="http://www.w3.org/2000/svg"
   xmlns:xlink="http://www.w3.org/1999/xlink"
   xmlns:sodipodi="http://sodipodi.sourceforge.net/DTD/sodipodi-0.dtd"
   xmlns:inkscape="http://www.inkscape.org/namespaces/inkscape"
   width="1024"
   height="1024"
   id="svg2"
   version="1.1"
   inkscape:version="0.92.4 (5da689c313, 2019-01-14)"
   sodipodi:docname="blender.svg">
  <defs
     id="defs4">
    <linearGradient
       id="linearGradient926">
      <stop
         id="stop922"
         offset="0"
         style="stop-color:#fb8c21;stop-opacity:1" />
      <stop
         id="stop924"
         offset="1"
         style="stop-color:#f15f19;stop-opacity:1" />
    </linearGradient>
    <linearGradient
       id="linearGradient1208">
      <stop
         style="stop-color:#fbb521;stop-opacity:1"
         offset="0"
         id="stop1206" />
      <stop
         style="stop-color:#f15f19;stop-opacity:1"
         offset="1"
         id="stop1204" />
    </linearGradient>
    <linearGradient
       id="linearGradient1134">
      <stop
         style="stop-color:#ffffff;stop-opacity:1"
         offset="0"
         id="stop1130" />
      <stop
         style="stop-color:#d7d7d7;stop-opacity:1"
         offset="1"
         id="stop1132" />
    </linearGradient>
    <linearGradient
       id="linearGradient1029">
      <stop
         style="stop-color:#fee581;stop-opacity:1"
         offset="0"
         id="stop1021" />
      <stop
         id="stop1023"
         offset="0.37325722"
         style="stop-color:#fb8345;stop-opacity:1" />
      <stop
         style="stop-color:#fca231;stop-opacity:1;"
         offset="0.80392152"
         id="stop1025" />
      <stop
         style="stop-color:#fdc92b;stop-opacity:1"
         offset="1"
         id="stop1027" />
    </linearGradient>
    <linearGradient
       id="linearGradient896">
      <stop
         id="stop892"
         offset="0"
         style="stop-color:#ffffff;stop-opacity:1" />
      <stop
         id="stop894"
         offset="1"
         style="stop-color:#d7d7d7;stop-opacity:1" />
    </linearGradient>
    <linearGradient
       id="linearGradient890">
      <stop
         id="stop886"
         offset="0"
         style="stop-color:#ffffff;stop-opacity:1" />
      <stop
         id="stop888"
         offset="1"
         style="stop-color:#d7d7d7;stop-opacity:1" />
    </linearGradient>
    <linearGradient
       id="linearGradient854">
      <stop
         style="stop-color:#fb7c38;stop-opacity:1"
         offset="0"
         id="stop852" />
      <stop
         id="stop856"
         offset="0.96567751"
         style="stop-color:#f34f17;stop-opacity:1" />
      <stop
         style="stop-color:#fee581;stop-opacity:1"
         offset="1"
         id="stop850" />
    </linearGradient>
    <inkscape:perspective
       sodipodi:type="inkscape:persp3d"
       inkscape:vp_x="13.534465 : 111.04854 : 1"
       inkscape:vp_y="0 : 1000 : 0"
       inkscape:vp_z="213.53447 : 111.04854 : 1"
       inkscape:persp3d-origin="113.53447 : 77.71521 : 1"
       id="perspective3135" />
    <linearGradient
       id="linearGradient4829">
      <stop
         style="stop-color:#faca20;stop-opacity:1"
         offset="0"
         id="stop4831" />
      <stop
         style="stop-color:#f3704f;stop-opacity:1"
         offset="1"
         id="stop4833" />
    </linearGradient>
    <clipPath
       clipPathUnits="userSpaceOnUse"
       id="clipPath4282">
      <rect
         style="color:#000000;display:inline;overflow:visible;visibility:visible;fill:#4d4d4d;fill-opacity:1;fill-rule:nonzero;stroke:none;stroke-width:9.13434315;marker:none;enable-background:accumulate"
         id="rect4284"
         width="246.875"
         height="234.375"
         x="462.5"
         y="1646.1122"
         ry="17"
         rx="17" />
    </clipPath>
    <linearGradient
       inkscape:collect="always"
       xlink:href="#linearGradient926"
       id="linearGradient4835"
       x1="102.29776"
       y1="-0.42686829"
       x2="102.29776"
       y2="199.16539"
       gradientUnits="userSpaceOnUse"
       gradientTransform="matrix(4.4999999,0,0,4.4999999,1123.5652,73.666508)" />
    <linearGradient
       inkscape:collect="always"
       xlink:href="#linearGradient5423"
       id="linearGradient5429"
       x1="408.66196"
       y1="44.604382"
       x2="408.66196"
       y2="562.04968"
       gradientUnits="userSpaceOnUse" />
    <linearGradient
       id="linearGradient5423">
      <stop
         style="stop-color:#db8451;stop-opacity:1;"
         offset="0"
         id="stop5425" />
      <stop
         style="stop-color:#c85c29;stop-opacity:1;"
         offset="1"
         id="stop5427" />
    </linearGradient>
    <linearGradient
       inkscape:collect="always"
       xlink:href="#linearGradient3986"
       id="linearGradient3992"
       x1="78.5625"
       y1="993.6615"
       x2="120.28125"
       y2="993.6615"
       gradientUnits="userSpaceOnUse" />
    <linearGradient
       inkscape:collect="always"
       id="linearGradient3986">
      <stop
         style="stop-color:#000000;stop-opacity:1;"
         offset="0"
         id="stop3988" />
      <stop
         style="stop-color:#000000;stop-opacity:0;"
         offset="1"
         id="stop3990" />
    </linearGradient>
    <linearGradient
       inkscape:collect="always"
       xlink:href="#linearGradient5423-1"
       id="linearGradient5473-2"
       x1="99.036476"
       y1="-0.50471628"
       x2="99.036476"
       y2="199.83986"
       gradientUnits="userSpaceOnUse" />
    <linearGradient
       id="linearGradient5423-1">
      <stop
         style="stop-color:#51b9db;stop-opacity:1;"
         offset="0"
         id="stop5425-2" />
      <stop
         style="stop-color:#2fabd4;stop-opacity:1;"
         offset="1"
         id="stop5427-3" />
    </linearGradient>
    <linearGradient
       y2="199.83986"
       x2="99.036476"
       y1="-0.50471628"
       x1="99.036476"
       gradientUnits="userSpaceOnUse"
       id="linearGradient4119"
       xlink:href="#linearGradient5423-1"
       inkscape:collect="always" />
    <linearGradient
       id="linearGradient4370">
      <stop
         id="stop4372"
         offset="0"
         style="stop-color:#5185db;stop-opacity:1" />
      <stop
         id="stop4374"
         offset="1"
         style="stop-color:#366fb5;stop-opacity:1" />
    </linearGradient>
    <linearGradient
       inkscape:collect="always"
       xlink:href="#linearGradient4303"
       id="linearGradient1019"
       x1="505.31677"
       y1="401.73566"
       x2="505.31677"
       y2="681.73566"
       gradientUnits="userSpaceOnUse"
       gradientTransform="translate(-5.3167816,-9.3734543)" />
    <linearGradient
       inkscape:collect="always"
       id="linearGradient4903">
      <stop
         style="stop-color:#e8ebec;stop-opacity:1"
         offset="0"
         id="stop4905" />
      <stop
         style="stop-color:#fdfeff;stop-opacity:1"
         offset="1"
         id="stop4907" />
    </linearGradient>
    <linearGradient
       id="linearGradient4303"
       inkscape:collect="always">
      <stop
         id="stop4305"
         offset="0"
         style="stop-color:#333333;stop-opacity:1" />
      <stop
         id="stop4307"
         offset="1"
         style="stop-color:#4d4d4d;stop-opacity:1" />
    </linearGradient>
    <linearGradient
       id="linearGradient4422">
      <stop
         style="stop-color:#f15f19;stop-opacity:1"
         offset="0"
         id="stop4424" />
      <stop
         style="stop-color:#fbb521;stop-opacity:1"
         offset="1"
         id="stop4426" />
    </linearGradient>
    <linearGradient
       id="linearGradient4657">
      <stop
         id="stop4653"
         offset="0"
         style="stop-color:#ffffff;stop-opacity:1" />
      <stop
         id="stop4655"
         offset="1"
         style="stop-color:#ffffff;stop-opacity:0;" />
    </linearGradient>
    <linearGradient
       inkscape:collect="always"
       xlink:href="#linearGradient4903"
       id="linearGradient898"
       gradientUnits="userSpaceOnUse"
       gradientTransform="matrix(3.125,0,0,3.125,721.20718,-917.11491)"
       x1="140"
       y1="372.36218"
       x2="300"
       y2="532.36218" />
    <filter
       style="color-interpolation-filters:sRGB;"
       inkscape:label="Drop Shadow"
       id="filter934">
      <feFlood
         flood-opacity="0.294118"
         flood-color="rgb(0,0,0)"
         result="flood"
         id="feFlood924" />
      <feComposite
         in="flood"
         in2="SourceGraphic"
         operator="in"
         result="composite1"
         id="feComposite926" />
      <feGaussianBlur
         in="composite1"
         stdDeviation="3"
         result="blur"
         id="feGaussianBlur928" />
      <feOffset
         dx="0"
         dy="3"
         result="offset"
         id="feOffset930" />
      <feComposite
         in="SourceGraphic"
         in2="offset"
         operator="over"
         result="composite2"
         id="feComposite932" />
    </filter>
    <filter
       style="color-interpolation-filters:sRGB;"
       inkscape:label="Drop Shadow"
       id="filter948">
      <feFlood
         flood-opacity="0.294118"
         flood-color="rgb(0,0,0)"
         result="flood"
         id="feFlood938" />
      <feComposite
         in="flood"
         in2="SourceGraphic"
         operator="out"
         result="composite1"
         id="feComposite940" />
      <feGaussianBlur
         in="composite1"
         stdDeviation="3"
         result="blur"
         id="feGaussianBlur942" />
      <feOffset
         dx="0"
         dy="3"
         result="offset"
         id="feOffset944" />
      <feComposite
         in="offset"
         in2="SourceGraphic"
         operator="in"
         result="composite2"
         id="feComposite946" />
    </filter>
    <linearGradient
       inkscape:collect="always"
       xlink:href="#linearGradient926"
       id="linearGradient986"
       gradientUnits="userSpaceOnUse"
       gradientTransform="matrix(4.4499999,0,0,4.4499999,67.000016,95.36216)"
       x1="101.79775"
       y1="-0.67415285"
       x2="101.79775"
       y2="201.57304" />
    <filter
       style="color-interpolation-filters:sRGB;"
       inkscape:label="Drop Shadow"
       id="filter1037">
      <feFlood
         flood-opacity="0.294118"
         flood-color="rgb(0,0,0)"
         result="flood"
         id="feFlood1027" />
      <feComposite
         in="flood"
         in2="SourceGraphic"
         operator="out"
         result="composite1"
         id="feComposite1029" />
      <feGaussianBlur
         in="composite1"
         stdDeviation="5"
         result="blur"
         id="feGaussianBlur1031" />
      <feOffset
         dx="0"
         dy="3"
         result="offset"
         id="feOffset1033" />
      <feComposite
         in="offset"
         in2="SourceGraphic"
         operator="in"
         result="composite2"
         id="feComposite1035" />
    </filter>
    <linearGradient
       inkscape:collect="always"
       xlink:href="#linearGradient4903"
       id="linearGradient1043"
       gradientUnits="userSpaceOnUse"
       gradientTransform="matrix(3.75,0,0,3.75,-313.00019,-1155.996)"
       x1="140"
       y1="372.36218"
       x2="300"
       y2="532.36218" />
    <linearGradient
       inkscape:collect="always"
       xlink:href="#linearGradient4903"
       id="linearGradient1090"
       gradientUnits="userSpaceOnUse"
       gradientTransform="matrix(4.8999999,0,0,4.8999999,22.000018,50.362158)"
       x1="102.29776"
       y1="-0.42686829"
       x2="102.29776"
       y2="199.16539" />
  </defs>
  <sodipodi:namedview
     id="base"
     pagecolor="#ffffff"
     bordercolor="#666666"
     borderopacity="1.0"
     inkscape:pageopacity="0.0"
     inkscape:pageshadow="2"
     inkscape:zoom="0.79492188"
     inkscape:cx="261.76334"
     inkscape:cy="489.2852"
     inkscape:document-units="px"
     inkscape:current-layer="layer1"
     showgrid="true"
     inkscape:window-width="1920"
     inkscape:window-height="1055"
     inkscape:window-x="0"
     inkscape:window-y="25"
     inkscape:window-maximized="1"
     inkscape:snap-from-guide="true"
     showguides="true"
     inkscape:guide-bbox="true"
     inkscape:pagecheckerboard="true">
    <sodipodi:guide
       position="200,0"
       orientation="-200,0"
       id="guide3766"
       inkscape:locked="false" />
    <sodipodi:guide
       position="0,200"
       orientation="200,0"
       id="guide3127"
       inkscape:locked="false" />
    <sodipodi:guide
       position="0,-2.6171874e-06"
       orientation="0,100"
       id="guide3129"
       inkscape:locked="false" />
    <sodipodi:guide
       position="100,-2.6171874e-06"
       orientation="-200,0"
       id="guide3131"
       inkscape:locked="false" />
    <sodipodi:guide
       position="100,200"
       orientation="0,-100"
       id="guide3133"
       inkscape:locked="false" />
    <inkscape:grid
       type="xygrid"
       id="grid848" />
  </sodipodi:namedview>
  <metadata
     id="metadata7">
    <rdf:RDF>
      <cc:Work
         rdf:about="">
        <dc:format>image/svg+xml</dc:format>
        <dc:type
           rdf:resource="http://purl.org/dc/dcmitype/StillImage" />
        <dc:title />
      </cc:Work>
    </rdf:RDF>
  </metadata>
  <g
     inkscape:label="Layer 1"
     inkscape:groupmode="layer"
     id="layer1"
     transform="translate(0,-28.36218)">
    <circle
       style="opacity:0.99999999;fill:url(#linearGradient1043);fill-opacity:1;fill-rule:evenodd;stroke:none;stroke-width:42.95905304;stroke-linecap:round;stroke-linejoin:round;stroke-miterlimit:4;stroke-dasharray:none;stroke-opacity:1;paint-order:stroke markers fill"
       id="circle1041"
       cx="512"
       cy="540.36218"
       r="300" />
    <path
       sodipodi:nodetypes="ssssssssssssss"
       inkscape:connector-curvature="0"
       id="path1088"
       d="m 512,50.36218 c -129.95608,0 -285.22946,10.260908 -377.12228,102.15374 C 42.984891,244.40873 22,410.4061 22,540.36218 22,670.31826 73.62485,794.95168 165.51767,886.84451 257.4105,978.73733 382.04392,1030.3622 512,1030.3622 c 129.95608,0 254.5895,-51.62487 346.48233,-143.51769 C 950.37515,794.95168 1002,670.31826 1002,540.36218 1002,410.4061 950.37515,285.77268 858.48233,193.87985 766.5895,101.98703 641.95608,50.36218 512,50.36218 Z m 0,217.77778 c 150.34418,0 272.22222,121.87804 272.22222,272.22222 C 784.22222,690.70636 662.34418,812.5844 512,812.5844 361.65582,812.5844 239.77778,690.70636 239.77778,540.36218 239.77778,390.018 361.65582,268.13996 512,268.13996 Z"
       style="color:#000000;display:inline;overflow:visible;visibility:visible;fill:url(#linearGradient1090);fill-opacity:1.0;fill-rule:nonzero;stroke:none;stroke-width:44.75827789;marker:none;enable-background:accumulate" />
    <circle
       style="color:#000000;display:inline;overflow:visible;visibility:visible;fill:url(#linearGradient4835);fill-opacity:1;fill-rule:nonzero;stroke:none;stroke-width:41.10454178;marker:none;enable-background:accumulate"
       id="path4188"
       cx="1573.5652"
       cy="523.6665"
       r="450" />
    <circle
       style="opacity:0.81999966;fill:url(#linearGradient1019);fill-opacity:1;stroke:none;stroke-width:1.10899997;stroke-linecap:square;stroke-linejoin:miter;stroke-miterlimit:4;stroke-dasharray:none;stroke-opacity:1;paint-order:stroke markers fill"
       id="path1011"
       cx="512"
       cy="540.36218"
       r="128" />
    <path
       style="fill:none;stroke:#000000;stroke-width:1px;stroke-linecap:butt;stroke-linejoin:miter;stroke-opacity:1"
       d="M 55,272.36218 Z"
       id="path1058"
       inkscape:connector-curvature="0" />
    <path
       style="fill:none;stroke:#000000;stroke-width:1px;stroke-linecap:butt;stroke-linejoin:miter;stroke-opacity:1"
       d="M 50,267.36218 Z"
       id="path1060"
       inkscape:connector-curvature="0" />
    <circle
       r="250"
       cy="496.51688"
       cx="1408.7073"
       id="circle896"
       style="opacity:0.8;fill:url(#linearGradient898);fill-opacity:1;fill-rule:evenodd;stroke:none;stroke-width:35.79920959;stroke-linecap:round;stroke-linejoin:round;stroke-miterlimit:4;stroke-dasharray:none;stroke-opacity:1;paint-order:stroke markers fill" />
    <path
       style="color:#000000;display:inline;overflow:visible;visibility:visible;fill:url(#linearGradient986);fill-opacity:1;fill-rule:nonzero;stroke:none;stroke-width:40.64782333;marker:none;enable-background:accumulate"
       d="m 512,95.36218 c -118.02134,0 -259.03492,9.31858 -342.4886,92.77227 C 86.057707,271.58813 67,422.34084 67,540.36218 67,658.38352 113.88379,771.57101 197.33748,855.0247 280.79117,938.47839 393.97866,985.36218 512,985.36218 c 118.02134,0 231.20883,-46.88379 314.66252,-130.33748 C 910.11621,771.57101 957,658.38352 957,540.36218 957,422.34084 910.11621,309.15335 826.66252,225.69966 743.20883,142.24597 630.02134,95.36218 512,95.36218 Z m 0,197.77778 c 136.53706,0 247.22222,110.68516 247.22222,247.22222 0,136.53706 -110.68516,247.22222 -247.22222,247.22222 -136.53706,0 -247.22222,-110.68516 -247.22222,-247.22222 0,-136.53706 110.68516,-247.22222 247.22222,-247.22222 z"
       id="circle981"
       inkscape:connector-curvature="0"
       sodipodi:nodetypes="ssssssssssssss" />
  </g>
</svg>

<svg version="1.1" viewBox="0 0 1024 1024" xmlns="http://www.w3.org/2000/svg" xmlns:xlink="http://www.w3.org/1999/xlink">
 <defs>
  <linearGradient id="b">
   <stop stop-color="#fb8c21" offset="0"/>
   <stop stop-color="#f15f19" offset="1"/>
  </linearGradient>
  <linearGradient id="e" x1="102.3" x2="102.3" y1="-.42687" y2="199.17" gradientTransform="matrix(4.5 0 0 4.5 1123.6 73.667)" gradientUnits="userSpaceOnUse" xlink:href="#b"/>
  <linearGradient id="h" x1="505.32" x2="505.32" y1="401.74" y2="681.74" gradientTransform="translate(-5.3168 -9.3735)" gradientUnits="userSpaceOnUse">
   <stop stop-color="#333" offset="0"/>
   <stop stop-color="#4d4d4d" offset="1"/>
  </linearGradient>
  <linearGradient id="a">
   <stop stop-color="#e8ebec" offset="0"/>
   <stop stop-color="#fdfeff" offset="1"/>
  </linearGradient>
  <linearGradient id="d" x1="140" x2="300" y1="372.36" y2="532.36" gradientTransform="matrix(3.125 0 0 3.125 721.21 -917.11)" gradientUnits="userSpaceOnUse" xlink:href="#a"/>
  <linearGradient id="c" x1="101.8" x2="101.8" y1="-.67415" y2="201.57" gradientTransform="matrix(4.45 0 0 4.45 67 95.362)" gradientUnits="userSpaceOnUse" xlink:href="#b"/>
  <linearGradient id="g" x1="140" x2="300" y1="372.36" y2="532.36" gradientTransform="matrix(3.75 0 0 3.75 -313 -1156)" gradientUnits="userSpaceOnUse" xlink:href="#a"/>
  <linearGradient id="f" x1="102.3" x2="102.3" y1="-.42687" y2="199.17" gradientTransform="matrix(4.9 0 0 4.9 22 50.362)" gradientUnits="userSpaceOnUse" xlink:href="#a"/>
 </defs>
 <g transform="translate(0 -28.362)">
  <circle cx="512" cy="540.36" r="300" fill="url(#g)" fill-rule="evenodd" style="paint-order:stroke markers fill"/>
  <path d="m512 50.362c-129.96 0-285.23 10.261-377.12 102.15-91.893 91.893-112.88 257.89-112.88 387.85s51.625 254.59 143.52 346.48c91.893 91.893 216.53 143.52 346.48 143.52s254.59-51.625 346.48-143.52c91.893-91.893 143.52-216.53 143.52-346.48s-51.625-254.59-143.52-346.48c-91.893-91.893-216.53-143.52-346.48-143.52zm0 217.78c150.34 0 272.22 121.88 272.22 272.22s-121.88 272.22-272.22 272.22-272.22-121.88-272.22-272.22 121.88-272.22 272.22-272.22z" color="#000000" fill="url(#f)"/>
  <circle cx="1573.6" cy="523.67" r="450" color="#000000" fill="url(#e)"/>
  <circle cx="512" cy="540.36" r="128" fill="url(#h)" opacity=".82" style="paint-order:stroke markers fill"/>
  <path d="m55 272.36" fill="none" stroke="#000" stroke-width="1px"/>
  <path d="m50 267.36" fill="none" stroke="#000" stroke-width="1px"/>
  <circle cx="1408.7" cy="496.52" r="250" fill="url(#d)" fill-rule="evenodd" opacity=".8" style="paint-order:stroke markers fill"/>
  <path d="m512 95.362c-118.02 0-259.03 9.3186-342.49 92.772-83.454 83.454-102.51 234.21-102.51 352.23s46.884 231.21 130.34 314.66 196.64 130.34 314.66 130.34 231.21-46.884 314.66-130.34 130.34-196.64 130.34-314.66-46.884-231.21-130.34-314.66-196.64-130.34-314.66-130.34zm0 197.78c136.54 0 247.22 110.69 247.22 247.22s-110.69 247.22-247.22 247.22-247.22-110.69-247.22-247.22 110.69-247.22 247.22-247.22z" color="#000000" fill="url(#c)"/>
 </g>
</svg>
